X:1
T:O, the Things We May Do
T:O, the Things We May Do
T:James Monroe Hagan
T:Lizzie Douglas Foulks DeArmond, 1916
T:Public Domain Courtesy of the Cyber Hymnal™
T:Public Domain Courtesy of the Cyber Hymnal™
C:James Monroe Hagan
Z:Public Domain
Z:Courtesy of the Cyber Hymnal™
%%score ( 1 2 ) ( 3 4 )
L:1/8
Q:1/4=100
M:4/4
K:Ab
V:1 treble 
V:2 treble 
V:3 bass 
V:4 bass 
V:1
 [CE][CA] | [Ec]2 [DB][Ec] [CA]2 [EA][EA] | [DB]2 [DB]2 [DF]2 [=DF][DA] | %3
w: 1.~Have you|lift- ed a stone from your|bro- ther’s way, As he|
w: 2.~Have you|spok- en a word full of|hope and cheer? Have you|
w: 3.~Have you|held up your light thro’ the|sha- dows dark, So that|
 [EG]2 [DG][CA] (Bc) [Ed]2 | [Ec]6 [CE][CA] | [Ec]2 [DB][Ec] [CA]2 [EA][EA] | %6
w: strug- gled a- long * life’s|road? Have you|lov- ing- ly touched some frail,|
w: walked with a slow- * er|pace, Till the|wear- y of heart who were|
w: some- bo- dy else * might|see? Have you|lived with the Christ thro’ the|
 [DB]2 [DB]2 [DF]2 [=DF][DA] | [EG]2 [Ec][Ed] [Ec]2 [DB]2 | [CA]6 ||"^Refrain" [CA][EG] | %10
w: toil worn hand, Shared with|some- one his hea- vy|load?||
w: stumb- ling on, Took new|cour- age to run the|race?|O, the|
w: long, long day, Gain- ing|ma- ny a vic- to-|ry?||
 [DF]2 [Fd][Fc] [Fd]2 [EG][DF] | [CE]2 [Ec][=D=B] [Ec]2 [CA][EG] | [DF]2 [DF][DA] [Ec]2 [EB][FA] | %13
w: |||
w: things we may do, you and|I, you and I; O, the|love we can give if we|
w: |||
 e6 [Ec][Ed] | [Ae]2 [Ae][Ae] [Ae]2 [EA][EA] | [FB]2 [Fc]>[Fc] !fermata![Fd]2 [=DF][DA] | %16
w: |||
w: try; Just a|word or a song as we’re|pass- ing a- long, They will|
w: |||
 [EG]2 [Ec][Ed] [Ec]2 [DB][DB] | A6 [CA]2 |] %18
w: ||
w: count in the great by and|by. *|
w: ||
V:2
 x2 | x8 | x8 | x4 E2 x2 | x8 | x8 | x8 | x8 | x6 || x2 | x8 | x8 | x8 | (G2 BA G2) x2 | x8 | x8 | %16
 x8 | C2 DD x4 |] %18
V:3
 [A,,A,][A,,E,] | [A,,A,]2 [A,,A,][A,,A,] [A,,E,]2 [C,A,][C,A,] | %2
 [D,F,]2 [D,F,]2 [D,B,]2 [B,,B,][B,,B,] | [E,B,]2 [E,B,][E,A,] (G,A,) [E,B,]2 | %4
 A,6 [A,,A,][A,,E,A,] | [A,,A,]2 [A,,A,][A,,A,] [A,,E,]2 [C,A,][C,A,] | %6
 [D,F,]2 [D,F,]2 [D,B,]2 [B,,B,][B,,B,] | [E,B,]2 [E,A,][E,B,] [E,A,]2 [E,G,]2 | [A,,A,]6 || %9
 [A,,A,][C,A,] | [D,A,]2 [D,A,][D,A,] [D,A,]2 [D,A,][D,A,] | [A,,A,]6 [A,,A,][C,A,] | %12
 [D,A,]2 [D,A,][F,A,] A,2 [G,B,][F,B,] | (B,2 DC B,2) A,[A,B,] | %14
 [A,C]2 [A,C][A,C] [A,C]2 [A,,C][A,,C] | [D,B,]2 [C,=A,]>[C,A,] !fermata![B,,B,]2 [B,,B,][B,,B,] | %16
 [E,B,]2 [E,A,][E,B,] [E,A,]2 [E,G,][E,G,] | (A,2 F,F, E,2) x2 |] %18
V:4
 x2 | x8 | x8 | x4 E,2 x2 | A,6 x2 | x8 | x8 | x8 | x6 || x2 | x8 | x8 | x4 A,2 x2 | E,6 A, x | %14
 x8 | x8 | x8 | A,,6 x2 |] %18

